static/assets/template/assets/img/icons/essential/detailed/Junk_Food.svg

<svg height="113" viewBox="0 0 150 113" width="150" xmlns="http://www.w3.org/2000/svg"><g fill="none" fill-rule="evenodd" transform="translate(2 1)"><path d="m121.9 28c0-15-27.2-27.2-60.8-27.2s-60.8 12.2-60.8 27.2v4.2h121.5v-4.2z" fill-rule="nonzero"/><path d="m121.9 28.6c0-12.9-25.1-23.3-56.2-23.3-31 0-56.2 10.4-56.2 23.3v3.6h112.3v-3.6z" fill-rule="nonzero"/><path d="m94 95.5h-67.8c-7.4 0-14.7-2.6-20-7.7-3.7-3.5-5.8-7.5-5.8-11.6v-9.8h28.5" fill-rule="nonzero"/><path d="m97.4 70.7-3.2 24.8h-63.9c-7 0-13.8-2.2-18.9-6.6-3.5-3-5.5-6.4-5.5-9.9v-8.3z" fill="#bad8ff" fill-rule="nonzero"/><path d="m96.2 70.7-2 15.4h-63.9c-7 0-13.8-2.2-18.9-6.6-3.2-2.7-5.1-5.7-5.4-8.8z" fill-rule="nonzero"/><path d="m8.8 14.1c-5.4 4.1-8.4 8.8-8.4 13.9v4.2h121.5v-4.2c0-15-27.2-27.2-60.8-27.2-14.4 0-27.6 2.2-38 6" stroke-linecap="round" stroke-linejoin="round" stroke-width="3"/><path d="m16.2 9.7c-.3.2-.6.3-1 .5" stroke-linecap="round" stroke-linejoin="round" stroke-width="3"/><path d="m64.5 66.4h31.9" stroke-linecap="round" stroke-linejoin="round" stroke-width="3"/><path d="m79.4 95.5h-53.2c-7.4 0-14.7-2.6-20-7.7-3.7-3.5-5.8-7.5-5.8-11.6v-9.8h28.5" stroke-linecap="round" stroke-linejoin="round" stroke-width="3"/><path d="m101 43h20.9" stroke-linecap="round" stroke-linejoin="round" stroke-width="3"/><path d="m94.3 43h.9" stroke-linecap="round" stroke-linejoin="round" stroke-width="3"/><path d="m.4 43h89.9" stroke-linecap="round" stroke-linejoin="round" stroke-width="3"/><path d="m13.3 55.2 28 20.1c1.4.7 3 .8 4.4.3l41.5-20.4" fill-rule="nonzero" stroke-linecap="round" stroke-linejoin="round" stroke-width="3"/><circle cx="118.4" cy="82.8" fill-rule="nonzero" r="27.5"/><circle cx="118.4" cy="82.8" fill-rule="nonzero" r="27.5"/><path d="m145.7 86.4c-1.7 13.5-13.3 23.9-27.2 23.9-15.2 0-27.5-12.3-27.5-27.5s12.3-27.5 27.5-27.5c3.9 0 7.7.8 11 2.3" stroke-linecap="round" stroke-linejoin="round" stroke-width="3"/><path d="m141.1 67.3c1.3 1.9 2.4 4.1 3.2 6.3" stroke-linecap="round" stroke-linejoin="round" stroke-width="3"/><g fill-rule="nonzero" transform="translate(103 67)"><path d="m25.2 29.9c-1.2 0-2.3-.5-3.2-1.3l-6.5-6.5-6.5 6.5c-.8.9-2 1.3-3.2 1.3s-2.3-.5-3.2-1.3c-.8-.8-1.3-2-1.3-3.2s.5-2.3 1.3-3.2l6.5-6.5-6.5-6.5c-.8-.8-1.3-2-1.3-3.2s.5-2.3 1.3-3.2 2-1.3 3.2-1.3 2.3.5 3.2 1.3l6.5 6.5 6.5-6.5c.8-.9 2-1.3 3.2-1.3s2.3.5 3.2 1.3c.8.8 1.3 2 1.3 3.2s-.5 2.3-1.3 3.2l-6.5 6.5 6.5 6.5c.8.8 1.3 2 1.3 3.2s-.5 2.3-1.3 3.2-2 1.3-3.2 1.3z"/><path d="m25.2 3c.8 0 1.5.3 2.1.9 1.2 1.2 1.2 3.1 0 4.2l-7.6 7.6 7.6 7.6c1.2 1.2 1.2 3.1 0 4.2-.6.6-1.4.9-2.1.9s-1.5-.3-2.1-.9l-7.6-7.6-7.6 7.6c-.6.6-1.4.9-2.1.9s-1.5-.3-2.1-.9c-1.2-1.2-1.2-3.1 0-4.2l7.6-7.6-7.6-7.6c-1.2-1.2-1.2-3.1 0-4.2.6-.6 1.4-.9 2.1-.9s1.5.3 2.1.9l7.6 7.6 7.6-7.6c.6-.6 1.3-.9 2.1-.9zm0-3c-1.6 0-3.1.6-4.2 1.8l-5.4 5.4-5.4-5.4c-1.1-1.1-2.6-1.8-4.2-1.8s-3.1.6-4.2 1.8c-1.1 1.1-1.8 2.6-1.8 4.2s.6 3.1 1.8 4.2l5.4 5.4-5.4 5.4c-1.1 1.1-1.8 2.6-1.8 4.2s.6 3.1 1.8 4.2c1.1 1.1 2.6 1.8 4.2 1.8s3.1-.6 4.2-1.8l5.4-5.4 5.4 5.4c1.1 1.1 2.6 1.8 4.2 1.8s3.1-.6 4.2-1.8c1.1-1.1 1.8-2.6 1.8-4.2s-.6-3.1-1.8-4.2l-5.4-5.4 5.4-5.4c1.1-1.1 1.8-2.6 1.8-4.2s-.6-3.1-1.8-4.2c-1.1-1.1-2.6-1.8-4.2-1.8z"/></g><g stroke-linecap="round" stroke-linejoin="round" stroke-width="3"><path d="m17.5 25.2h1"/><path d="m24.9 14.8h1"/><path d="m33.9 24h1"/><path d="m46.2 12.6h1"/><path d="m52.5 23.5h1"/><path d="m58.8 13.6h1"/><path d="m70.2 25.2h1"/><path d="m72.3 9.4h1.1"/><path d="m79 16.7h1"/><path d="m88.5 24.8h1.1"/><path d="m91.7 15.1h1.1"/><path d="m101.3 22h1.1"/><path d="m.4 55.2h118.1"/></g></g></svg>

<?xml version="1.0" encoding="UTF-8"?>
<svg width="150px" height="113px" viewBox="0 0 150 113" version="1.1" xmlns="http://www.w3.org/2000/svg" xmlns:xlink="http://www.w3.org/1999/xlink">
    <!-- Generator: Sketch 51.2 (57519) - http://www.bohemiancoding.com/sketch -->
    <title>Junk_Food</title>
    <desc>Created with Sketch.</desc>
    <defs></defs>
    <g id="Page-1" stroke="none" stroke-width="1" fill="none" fill-rule="evenodd">
        <g id="Junk_Food" transform="translate(2.000000, 1.000000)">
            <path d="M121.9,28 C121.9,13 94.7,0.8 61.1,0.8 C27.5,0.8 0.3,13 0.3,28 L0.3,32.2 L121.8,32.2 L121.8,28 L121.9,28 Z" id="Shape" class="fill-neutral" fill-rule="nonzero"></path>
            <path d="M121.9,28.6 C121.9,15.7 96.8,5.3 65.7,5.3 C34.7,5.3 9.5,15.7 9.5,28.6 L9.5,32.2 L121.8,32.2 L121.8,28.6 L121.9,28.6 Z" id="Shape" class="fill-primary-100" fill-rule="nonzero"></path>
            <path d="M94,95.5 L26.2,95.5 C18.8,95.5 11.5,92.9 6.2,87.8 C2.5,84.3 0.4,80.3 0.4,76.2 L0.4,66.4 L28.9,66.4" id="Shape" class="fill-neutral" fill-rule="nonzero"></path>
            <path d="M97.4,70.7 L94.2,95.5 L30.3,95.5 C23.3,95.5 16.5,93.3 11.4,88.9 C7.9,85.9 5.9,82.5 5.9,79 L5.9,70.7 L97.4,70.7 Z" id="Shape" fill="#BAD8FF" fill-rule="nonzero"></path>
            <path d="M96.2,70.7 L94.2,86.1 L30.3,86.1 C23.3,86.1 16.5,83.9 11.4,79.5 C8.2,76.8 6.3,73.8 6,70.7 L96.2,70.7 Z" id="Shape" class="fill-primary-100" fill-rule="nonzero"></path>
            <path d="M8.8,14.1 C3.4,18.2 0.4,22.9 0.4,28 L0.4,32.2 L121.9,32.2 L121.9,28 C121.9,13 94.7,0.8 61.1,0.8 C46.7,0.8 33.5,3 23.1,6.8" id="Shape" class="stroke-primary" stroke-width="3" stroke-linecap="round" stroke-linejoin="round"></path>
            <path d="M16.2,9.7 C15.9,9.9 15.6,10 15.2,10.2" id="Shape" class="stroke-primary" stroke-width="3" stroke-linecap="round" stroke-linejoin="round"></path>
            <path d="M64.5,66.4 L96.4,66.4" id="Shape" class="stroke-primary" stroke-width="3" stroke-linecap="round" stroke-linejoin="round"></path>
            <path d="M79.4,95.5 L26.2,95.5 C18.8,95.5 11.5,92.9 6.2,87.8 C2.5,84.3 0.4,80.3 0.4,76.2 L0.4,66.4 L28.9,66.4" id="Shape" class="stroke-primary" stroke-width="3" stroke-linecap="round" stroke-linejoin="round"></path>
            <path d="M101,43 L121.9,43" id="Shape" class="stroke-primary" stroke-width="3" stroke-linecap="round" stroke-linejoin="round"></path>
            <path d="M94.3,43 L95.2,43" id="Shape" class="stroke-primary" stroke-width="3" stroke-linecap="round" stroke-linejoin="round"></path>
            <path d="M0.4,43 L90.3,43" id="Shape" class="stroke-primary" stroke-width="3" stroke-linecap="round" stroke-linejoin="round"></path>
            <path d="M13.3,55.2 L41.3,75.3 C42.7,76 44.3,76.1 45.7,75.6 L87.2,55.2" id="Shape" stroke-width="3" class="stroke-primary fill-primary-400" fill-rule="nonzero" stroke-linecap="round" stroke-linejoin="round"></path>
            <circle id="Oval" class="fill-neutral" fill-rule="nonzero" cx="118.4" cy="82.8" r="27.5"></circle>
            <circle id="Oval" class="fill-primary-400" fill-rule="nonzero" cx="118.4" cy="82.8" r="27.5"></circle>
            <path d="M145.7,86.4 C144,99.9 132.4,110.3 118.5,110.3 C103.3,110.3 91,98 91,82.8 C91,67.6 103.3,55.3 118.5,55.3 C122.4,55.3 126.2,56.1 129.5,57.6" id="Shape" class="stroke-primary" stroke-width="3" stroke-linecap="round" stroke-linejoin="round"></path>
            <path d="M141.1,67.3 C142.4,69.2 143.5,71.4 144.3,73.6" id="Shape" class="stroke-primary" stroke-width="3" stroke-linecap="round" stroke-linejoin="round"></path>
            <g id="Group" transform="translate(103.000000, 67.000000)" fill-rule="nonzero">
                <path d="M25.2,29.9 C24,29.9 22.9,29.4 22,28.6 L15.5,22.1 L9,28.6 C8.2,29.5 7,29.9 5.8,29.9 C4.6,29.9 3.5,29.4 2.6,28.6 C1.8,27.8 1.3,26.6 1.3,25.4 C1.3,24.2 1.8,23.1 2.6,22.2 L9.1,15.7 L2.6,9.2 C1.8,8.4 1.3,7.2 1.3,6 C1.3,4.8 1.8,3.7 2.6,2.8 C3.4,1.9 4.6,1.5 5.8,1.5 C7,1.5 8.1,2 9,2.8 L15.5,9.3 L22,2.8 C22.8,1.9 24,1.5 25.2,1.5 C26.4,1.5 27.5,2 28.4,2.8 C29.2,3.6 29.7,4.8 29.7,6 C29.7,7.2 29.2,8.3 28.4,9.2 L21.9,15.7 L28.4,22.2 C29.2,23 29.7,24.2 29.7,25.4 C29.7,26.6 29.2,27.7 28.4,28.6 C27.6,29.5 26.4,29.9 25.2,29.9 Z" id="Shape" class="fill-neutral"></path>
                <path d="M25.2,3 C26,3 26.7,3.3 27.3,3.9 C28.5,5.1 28.5,7 27.3,8.1 L19.7,15.7 L27.3,23.3 C28.5,24.5 28.5,26.4 27.3,27.5 C26.7,28.1 25.9,28.4 25.2,28.4 C24.5,28.4 23.7,28.1 23.1,27.5 L15.5,19.9 L7.9,27.5 C7.3,28.1 6.5,28.4 5.8,28.4 C5.1,28.4 4.3,28.1 3.7,27.5 C2.5,26.3 2.5,24.4 3.7,23.3 L11.3,15.7 L3.7,8.1 C2.5,6.9 2.5,5 3.7,3.9 C4.3,3.3 5.1,3 5.8,3 C6.5,3 7.3,3.3 7.9,3.9 L15.5,11.5 L23.1,3.9 C23.7,3.3 24.4,3 25.2,3 Z M25.2,0 C23.6,0 22.1,0.6 21,1.8 L15.6,7.2 L10.2,1.8 C9.1,0.7 7.6,0 6,0 C4.4,0 2.9,0.6 1.8,1.8 C0.7,2.9 0,4.4 0,6 C0,7.6 0.6,9.1 1.8,10.2 L7.2,15.6 L1.8,21 C0.7,22.1 0,23.6 0,25.2 C0,26.8 0.6,28.3 1.8,29.4 C2.9,30.5 4.4,31.2 6,31.2 C7.6,31.2 9.1,30.6 10.2,29.4 L15.6,24 L21,29.4 C22.1,30.5 23.6,31.2 25.2,31.2 C26.8,31.2 28.3,30.6 29.4,29.4 C30.5,28.3 31.2,26.8 31.2,25.2 C31.2,23.6 30.6,22.1 29.4,21 L24,15.6 L29.4,10.2 C30.5,9.1 31.2,7.6 31.2,6 C31.2,4.4 30.6,2.9 29.4,1.8 C28.3,0.7 26.8,0 25.2,0 Z" id="Shape" class="fill-primary"></path>
            </g>
            <path d="M17.5,25.2 L18.5,25.2" id="Shape" class="stroke-primary" stroke-width="3" stroke-linecap="round" stroke-linejoin="round"></path>
            <path d="M24.9,14.8 L25.9,14.8" id="Shape" class="stroke-primary" stroke-width="3" stroke-linecap="round" stroke-linejoin="round"></path>
            <path d="M33.9,24 L34.9,24" id="Shape" class="stroke-primary" stroke-width="3" stroke-linecap="round" stroke-linejoin="round"></path>
            <path d="M46.2,12.6 L47.2,12.6" id="Shape" class="stroke-primary" stroke-width="3" stroke-linecap="round" stroke-linejoin="round"></path>
            <path d="M52.5,23.5 L53.5,23.5" id="Shape" class="stroke-primary" stroke-width="3" stroke-linecap="round" stroke-linejoin="round"></path>
            <path d="M58.8,13.6 L59.8,13.6" id="Shape" class="stroke-primary" stroke-width="3" stroke-linecap="round" stroke-linejoin="round"></path>
            <path d="M70.2,25.2 L71.2,25.2" id="Shape" class="stroke-primary" stroke-width="3" stroke-linecap="round" stroke-linejoin="round"></path>
            <path d="M72.3,9.4 L73.4,9.4" id="Shape" class="stroke-primary" stroke-width="3" stroke-linecap="round" stroke-linejoin="round"></path>
            <path d="M79,16.7 L80,16.7" id="Shape" class="stroke-primary" stroke-width="3" stroke-linecap="round" stroke-linejoin="round"></path>
            <path d="M88.5,24.8 L89.6,24.8" id="Shape" class="stroke-primary" stroke-width="3" stroke-linecap="round" stroke-linejoin="round"></path>
            <path d="M91.7,15.1 L92.8,15.1" id="Shape" class="stroke-primary" stroke-width="3" stroke-linecap="round" stroke-linejoin="round"></path>
            <path d="M101.3,22 L102.4,22" id="Shape" class="stroke-primary" stroke-width="3" stroke-linecap="round" stroke-linejoin="round"></path>
            <path d="M0.4,55.2 L118.5,55.2" id="Shape" class="stroke-primary" stroke-width="3" stroke-linecap="round" stroke-linejoin="round"></path>
        </g>
    </g>
</svg>
